X:218
T:Will the Circle Be Unbroken?
Z:Jack Campin, http://www.campin.me.uk/
F:Jack Campin's Nine-Note Tunebook
% last edit 03-02-2013
M:4/4
L:1/8
Q:1/4=90
K:F
CD|F2 F4   AG |F2  A4 \
AG|F3  D F2F2 |DC- C4
CD|F2 F4   A>B|c2  A4 \
FG|A3  F G2G2 |F6  |]

